X: 21400
T: Kesh, The
R: jig
M: 6/8
K: Dmajor
|:{g}A{d}A{e}A {g}ABc|{g}B{d}B{e}B {g}Bce|{g}fe{A}e ae{A}e|{g}fec {g}ec{d}B|
{g}A{d}A{e}A {g}ABc|{g}B{d}B{e}B {g}Bce|{g}fe{A}e aec|{g}B{d}A{e}A [1 {GAG}A3:|2 {GAG}A2 B||
|:{g}c{d}c{e}c {g}ece|{g}faf {g}ec{d}A|{g}c{d}c{e}c {g}ec{d}A|{g}B{d}B{e}B {g}B{d}A{e}B|
{g}c{d}c{e}c {g}ece|{g}faf {g}ec{d}A|{g}ce{A}e {g}ece|{g}fa{g}a [1 A2 B:|2 A3|

